X:1
T:Lady Athenry
R:Other
M:6/8
%%printtempo 0
Q:150
C:Turlough O'Carolan
K:G
"G"B3 G2B|d2D GFE|"C"A2G "D"{G}F2E|"G"D2d ded|BcB A2G|"C"F2A "D"d2A|"G"B3 G2B|"D"A2F D3|
"G"B,2C D2E|D2G "D"FGA|"Em"B2E "D"A2F|"C"G2E "Am"CGE|"G"d2e dBG|"C"c2D "D"A2F|"G"D2G "D"G2F|"G"G3 G2||
(B/c/)|\
"G"d2B "C"G2e|"G"d2c B2c|d2g gbg|"D"f2d "C"a2f|"G"d2g gbg|"D"fag "C"f2e|"D"d2f faf|"G"gfe dcB|
"Am"c3 c2d|"C"efg efg|"D"f2d d2e|"Bm"fga "D"fga|"G"gfe dcB|"Am"cBA "C"ABc|"G"d2D "D"A2F|"C"G3 "G"G2|]
